images/3234442.svg

<?xml version="1.0" encoding="UTF-8"?>
<svg xmlns="http://www.w3.org/2000/svg" xmlns:xlink="http://www.w3.org/1999/xlink" width="300pt" height="300pt" viewBox="0 0 300 300" version="1.1">
<defs>
<g>
<symbol overflow="visible" id="glyph0-0">
<path style="stroke:none;" d="M 0.453125 1.59375 L 0.453125 -6.34375 L 4.953125 -6.34375 L 4.953125 1.59375 Z M 0.953125 1.09375 L 4.453125 1.09375 L 4.453125 -5.84375 L 0.953125 -5.84375 Z M 0.953125 1.09375 "/>
</symbol>
<symbol overflow="visible" id="glyph0-1">
<path style="stroke:none;" d="M 0.890625 -6.5625 L 2.078125 -6.5625 L 4.984375 -1.078125 L 4.984375 -6.5625 L 5.84375 -6.5625 L 5.84375 0 L 4.65625 0 L 1.75 -5.484375 L 1.75 0 L 0.890625 0 Z M 0.890625 -6.5625 "/>
</symbol>
<symbol overflow="visible" id="glyph0-2">
<path style="stroke:none;" d="M 0.890625 -6.5625 L 1.765625 -6.5625 L 1.765625 -3.875 L 5 -3.875 L 5 -6.5625 L 5.890625 -6.5625 L 5.890625 0 L 5 0 L 5 -3.125 L 1.765625 -3.125 L 1.765625 0 L 0.890625 0 Z M 0.890625 -6.5625 "/>
</symbol>
</g>
</defs>
<g id="surface28849">
<rect x="0" y="0" width="300" height="300" style="fill:rgb(100%,100%,100%);fill-opacity:1;stroke:none;"/>
<path style="fill:none;stroke-width:1.2;stroke-linecap:butt;stroke-linejoin:miter;stroke:rgb(0%,0%,0%);stroke-opacity:1;stroke-miterlimit:10;" d="M 264.75 92.128906 L 244.773438 100.714844 "/>
<path style="fill:none;stroke-width:1.2;stroke-linecap:butt;stroke-linejoin:miter;stroke:rgb(0%,0%,0%);stroke-opacity:1;stroke-miterlimit:10;" d="M 244.773438 100.714844 L 242.21875 122.304688 "/>
<path style="fill:none;stroke-width:1.2;stroke-linecap:butt;stroke-linejoin:miter;stroke:rgb(0%,0%,0%);stroke-opacity:1;stroke-miterlimit:10;" d="M 239.4375 102.269531 L 237.394531 119.542969 "/>
<path style="fill:none;stroke-width:1.2;stroke-linecap:butt;stroke-linejoin:miter;stroke:rgb(0%,0%,100%);stroke-opacity:1;stroke-miterlimit:10;" d="M 227.351562 87.703125 L 236.0625 94.207031 "/>
<path style="fill:none;stroke-width:1.2;stroke-linecap:butt;stroke-linejoin:miter;stroke:rgb(0%,0%,0%);stroke-opacity:1;stroke-miterlimit:10;" d="M 236.0625 94.207031 L 244.773438 100.714844 "/>
<path style="fill:none;stroke-width:1.2;stroke-linecap:butt;stroke-linejoin:miter;stroke:rgb(0%,0%,0%);stroke-opacity:1;stroke-miterlimit:10;" d="M 242.21875 122.304688 L 232.230469 126.597656 "/>
<path style="fill:none;stroke-width:1.2;stroke-linecap:butt;stroke-linejoin:miter;stroke:rgb(0%,0%,100%);stroke-opacity:1;stroke-miterlimit:10;" d="M 232.230469 126.597656 L 222.242188 130.886719 "/>
<path style="fill:none;stroke-width:1.2;stroke-linecap:butt;stroke-linejoin:miter;stroke:rgb(0%,0%,100%);stroke-opacity:1;stroke-miterlimit:10;" d="M 222.242188 130.886719 L 213.53125 124.382812 "/>
<path style="fill:none;stroke-width:1.2;stroke-linecap:butt;stroke-linejoin:miter;stroke:rgb(0%,0%,0%);stroke-opacity:1;stroke-miterlimit:10;" d="M 213.53125 124.382812 L 204.820312 117.878906 "/>
<path style="fill:none;stroke-width:1.2;stroke-linecap:butt;stroke-linejoin:miter;stroke:rgb(0%,0%,100%);stroke-opacity:1;stroke-miterlimit:10;" d="M 223.558594 125.488281 L 216.589844 120.285156 "/>
<path style="fill:none;stroke-width:1.2;stroke-linecap:butt;stroke-linejoin:miter;stroke:rgb(0%,0%,0%);stroke-opacity:1;stroke-miterlimit:10;" d="M 216.589844 120.285156 L 209.621094 115.082031 "/>
<path style=" stroke:none;fill-rule:nonzero;fill:rgb(100%,100%,100%);fill-opacity:1;" d="M 219.242188 125.386719 L 226.242188 125.386719 L 226.242188 136.386719 L 219.242188 136.386719 Z M 219.242188 125.386719 "/>
<g style="fill:rgb(0%,0%,100%);fill-opacity:1;">
  <use xlink:href="#glyph0-1" x="219.242188" y="134.049805"/>
</g>
<path style="fill:none;stroke-width:1.2;stroke-linecap:butt;stroke-linejoin:miter;stroke:rgb(0%,0%,0%);stroke-opacity:1;stroke-miterlimit:10;" d="M 204.820312 117.878906 L 207.375 96.289062 "/>
<path style="fill:none;stroke-width:1.2;stroke-linecap:butt;stroke-linejoin:miter;stroke:rgb(0%,0%,0%);stroke-opacity:1;stroke-miterlimit:10;" d="M 204.820312 117.878906 L 184.84375 126.464844 "/>
<path style="fill:none;stroke-width:1.2;stroke-linecap:butt;stroke-linejoin:miter;stroke:rgb(0%,0%,0%);stroke-opacity:1;stroke-miterlimit:10;" d="M 207.375 96.289062 L 217.363281 91.996094 "/>
<path style="fill:none;stroke-width:1.2;stroke-linecap:butt;stroke-linejoin:miter;stroke:rgb(0%,0%,100%);stroke-opacity:1;stroke-miterlimit:10;" d="M 217.363281 91.996094 L 227.351562 87.703125 "/>
<path style="fill:none;stroke-width:1.2;stroke-linecap:butt;stroke-linejoin:miter;stroke:rgb(0%,0%,0%);stroke-opacity:1;stroke-miterlimit:10;" d="M 211.390625 100.128906 L 219.382812 96.695312 "/>
<path style="fill:none;stroke-width:1.2;stroke-linecap:butt;stroke-linejoin:miter;stroke:rgb(0%,0%,100%);stroke-opacity:1;stroke-miterlimit:10;" d="M 219.382812 96.695312 L 227.375 93.261719 "/>
<path style=" stroke:none;fill-rule:nonzero;fill:rgb(100%,100%,100%);fill-opacity:1;" d="M 224.351562 82.203125 L 231.351562 82.203125 L 231.351562 93.203125 L 224.351562 93.203125 Z M 224.351562 82.203125 "/>
<g style="fill:rgb(0%,0%,100%);fill-opacity:1;">
  <use xlink:href="#glyph0-1" x="224.351562" y="90.866211"/>
</g>
<path style="fill:none;stroke-width:1.2;stroke-linecap:butt;stroke-linejoin:miter;stroke:rgb(0%,0%,0%);stroke-opacity:1;stroke-miterlimit:10;" d="M 184.84375 126.464844 L 183.566406 137.257812 "/>
<path style="fill:none;stroke-width:1.2;stroke-linecap:butt;stroke-linejoin:miter;stroke:rgb(0%,0%,100%);stroke-opacity:1;stroke-miterlimit:10;" d="M 183.566406 137.257812 L 182.289062 148.054688 "/>
<path style="fill:none;stroke-width:1.2;stroke-linecap:butt;stroke-linejoin:miter;stroke:rgb(0%,0%,100%);stroke-opacity:1;stroke-miterlimit:10;" d="M 182.289062 148.054688 L 172.300781 152.347656 "/>
<path style="fill:none;stroke-width:1.2;stroke-linecap:butt;stroke-linejoin:miter;stroke:rgb(0%,0%,0%);stroke-opacity:1;stroke-miterlimit:10;" d="M 172.300781 152.347656 L 162.3125 156.636719 "/>
<path style=" stroke:none;fill-rule:nonzero;fill:rgb(100%,100%,100%);fill-opacity:1;" d="M 175.289062 142.554688 L 189.289062 142.554688 L 189.289062 153.554688 L 175.289062 153.554688 Z M 175.289062 142.554688 "/>
<g style="fill:rgb(0%,0%,100%);fill-opacity:1;">
  <use xlink:href="#glyph0-1" x="175.289062" y="151.217773"/>
  <use xlink:href="#glyph0-2" x="182.266602" y="151.217773"/>
</g>
<path style="fill:none;stroke-width:1.2;stroke-linecap:butt;stroke-linejoin:miter;stroke:rgb(0%,0%,0%);stroke-opacity:1;stroke-miterlimit:10;" d="M 162.3125 156.636719 L 153.601562 150.132812 "/>
<path style="fill:none;stroke-width:1.2;stroke-linecap:butt;stroke-linejoin:miter;stroke:rgb(0%,0%,100%);stroke-opacity:1;stroke-miterlimit:10;" d="M 153.601562 150.132812 L 144.890625 143.628906 "/>
<path style="fill:none;stroke-width:1.2;stroke-linecap:butt;stroke-linejoin:miter;stroke:rgb(0%,0%,0%);stroke-opacity:1;stroke-miterlimit:10;" d="M 157.507812 159.4375 L 150.539062 154.234375 "/>
<path style="fill:none;stroke-width:1.2;stroke-linecap:butt;stroke-linejoin:miter;stroke:rgb(0%,0%,100%);stroke-opacity:1;stroke-miterlimit:10;" d="M 150.539062 154.234375 L 143.570312 149.03125 "/>
<path style="fill:none;stroke-width:1.2;stroke-linecap:butt;stroke-linejoin:miter;stroke:rgb(0%,0%,0%);stroke-opacity:1;stroke-miterlimit:10;" d="M 159.757812 178.230469 L 162.3125 156.636719 "/>
<path style="fill:none;stroke-width:1.2;stroke-linecap:butt;stroke-linejoin:miter;stroke:rgb(0%,0%,100%);stroke-opacity:1;stroke-miterlimit:10;" d="M 144.890625 143.628906 L 134.902344 147.921875 "/>
<path style="fill:none;stroke-width:1.2;stroke-linecap:butt;stroke-linejoin:miter;stroke:rgb(0%,0%,0%);stroke-opacity:1;stroke-miterlimit:10;" d="M 134.902344 147.921875 L 124.914062 152.210938 "/>
<path style=" stroke:none;fill-rule:nonzero;fill:rgb(100%,100%,100%);fill-opacity:1;" d="M 141.890625 138.128906 L 148.890625 138.128906 L 148.890625 149.128906 L 141.890625 149.128906 Z M 141.890625 138.128906 "/>
<g style="fill:rgb(0%,0%,100%);fill-opacity:1;">
  <use xlink:href="#glyph0-1" x="141.890625" y="146.791992"/>
</g>
<path style="fill:none;stroke-width:1.2;stroke-linecap:butt;stroke-linejoin:miter;stroke:rgb(0%,0%,0%);stroke-opacity:1;stroke-miterlimit:10;" d="M 124.914062 152.210938 L 123.636719 163.007812 "/>
<path style="fill:none;stroke-width:1.2;stroke-linecap:butt;stroke-linejoin:miter;stroke:rgb(0%,0%,100%);stroke-opacity:1;stroke-miterlimit:10;" d="M 123.636719 163.007812 L 122.359375 173.804688 "/>
<path style="fill:none;stroke-width:1.2;stroke-linecap:butt;stroke-linejoin:miter;stroke:rgb(0%,0%,0%);stroke-opacity:1;stroke-miterlimit:10;" d="M 129.738281 154.972656 L 128.714844 163.609375 "/>
<path style="fill:none;stroke-width:1.2;stroke-linecap:butt;stroke-linejoin:miter;stroke:rgb(0%,0%,100%);stroke-opacity:1;stroke-miterlimit:10;" d="M 128.714844 163.609375 L 127.695312 172.246094 "/>
<path style="fill:none;stroke-width:1.2;stroke-linecap:butt;stroke-linejoin:miter;stroke:rgb(0%,0%,0%);stroke-opacity:1;stroke-miterlimit:10;" d="M 124.914062 152.210938 L 107.492188 139.203125 "/>
<path style="fill:none;stroke-width:1.2;stroke-linecap:butt;stroke-linejoin:miter;stroke:rgb(0%,0%,100%);stroke-opacity:1;stroke-miterlimit:10;" d="M 122.359375 173.804688 L 131.070312 180.308594 "/>
<path style="fill:none;stroke-width:1.2;stroke-linecap:butt;stroke-linejoin:miter;stroke:rgb(0%,0%,0%);stroke-opacity:1;stroke-miterlimit:10;" d="M 131.070312 180.308594 L 139.78125 186.8125 "/>
<path style=" stroke:none;fill-rule:nonzero;fill:rgb(100%,100%,100%);fill-opacity:1;" d="M 119.359375 168.304688 L 126.359375 168.304688 L 126.359375 179.304688 L 119.359375 179.304688 Z M 119.359375 168.304688 "/>
<g style="fill:rgb(0%,0%,100%);fill-opacity:1;">
  <use xlink:href="#glyph0-1" x="119.359375" y="176.967773"/>
</g>
<path style="fill:none;stroke-width:1.2;stroke-linecap:butt;stroke-linejoin:miter;stroke:rgb(0%,0%,0%);stroke-opacity:1;stroke-miterlimit:10;" d="M 139.78125 186.8125 L 137.226562 208.40625 "/>
<path style="fill:none;stroke-width:1.2;stroke-linecap:butt;stroke-linejoin:miter;stroke:rgb(0%,0%,0%);stroke-opacity:1;stroke-miterlimit:10;" d="M 144.605469 189.574219 L 142.5625 206.847656 "/>
<path style="fill:none;stroke-width:1.2;stroke-linecap:butt;stroke-linejoin:miter;stroke:rgb(0%,0%,0%);stroke-opacity:1;stroke-miterlimit:10;" d="M 159.757812 178.230469 L 139.78125 186.8125 "/>
<path style="fill:none;stroke-width:1.2;stroke-linecap:butt;stroke-linejoin:miter;stroke:rgb(0%,0%,0%);stroke-opacity:1;stroke-miterlimit:10;" d="M 137.226562 208.40625 L 154.648438 221.414062 "/>
<path style="fill:none;stroke-width:1.2;stroke-linecap:butt;stroke-linejoin:miter;stroke:rgb(0%,0%,0%);stroke-opacity:1;stroke-miterlimit:10;" d="M 154.648438 221.414062 L 174.625 212.832031 "/>
<path style="fill:none;stroke-width:1.2;stroke-linecap:butt;stroke-linejoin:miter;stroke:rgb(0%,0%,0%);stroke-opacity:1;stroke-miterlimit:10;" d="M 154.625 215.855469 L 170.605469 208.988281 "/>
<path style="fill:none;stroke-width:1.2;stroke-linecap:butt;stroke-linejoin:miter;stroke:rgb(0%,0%,0%);stroke-opacity:1;stroke-miterlimit:10;" d="M 174.625 212.832031 L 177.179688 191.238281 "/>
<path style="fill:none;stroke-width:1.2;stroke-linecap:butt;stroke-linejoin:miter;stroke:rgb(0%,0%,0%);stroke-opacity:1;stroke-miterlimit:10;" d="M 177.179688 191.238281 L 159.757812 178.230469 "/>
<path style="fill:none;stroke-width:1.2;stroke-linecap:butt;stroke-linejoin:miter;stroke:rgb(0%,0%,0%);stroke-opacity:1;stroke-miterlimit:10;" d="M 172.375 194.035156 L 158.4375 183.628906 "/>
<path style="fill:none;stroke-width:1.2;stroke-linecap:butt;stroke-linejoin:miter;stroke:rgb(0%,0%,0%);stroke-opacity:1;stroke-miterlimit:10;" d="M 107.492188 139.203125 L 110.046875 117.613281 "/>
<path style="fill:none;stroke-width:1.2;stroke-linecap:butt;stroke-linejoin:miter;stroke:rgb(0%,0%,0%);stroke-opacity:1;stroke-miterlimit:10;" d="M 102.667969 136.445312 L 104.710938 119.171875 "/>
<path style="fill:none;stroke-width:1.2;stroke-linecap:butt;stroke-linejoin:miter;stroke:rgb(0%,0%,0%);stroke-opacity:1;stroke-miterlimit:10;" d="M 87.515625 147.789062 L 107.492188 139.203125 "/>
<path style="fill:none;stroke-width:1.2;stroke-linecap:butt;stroke-linejoin:miter;stroke:rgb(0%,0%,0%);stroke-opacity:1;stroke-miterlimit:10;" d="M 110.046875 117.613281 L 92.625 104.601562 "/>
<path style="fill:none;stroke-width:1.2;stroke-linecap:butt;stroke-linejoin:miter;stroke:rgb(0%,0%,0%);stroke-opacity:1;stroke-miterlimit:10;" d="M 92.625 104.601562 L 72.648438 113.1875 "/>
<path style="fill:none;stroke-width:1.2;stroke-linecap:butt;stroke-linejoin:miter;stroke:rgb(0%,0%,0%);stroke-opacity:1;stroke-miterlimit:10;" d="M 92.648438 110.164062 L 76.664062 117.027344 "/>
<path style="fill:none;stroke-width:1.2;stroke-linecap:butt;stroke-linejoin:miter;stroke:rgb(0%,0%,0%);stroke-opacity:1;stroke-miterlimit:10;" d="M 72.648438 113.1875 L 70.09375 134.777344 "/>
<path style="fill:none;stroke-width:1.2;stroke-linecap:butt;stroke-linejoin:miter;stroke:rgb(0%,0%,0%);stroke-opacity:1;stroke-miterlimit:10;" d="M 72.648438 113.1875 L 63.9375 106.683594 "/>
<path style="fill:none;stroke-width:1.2;stroke-linecap:butt;stroke-linejoin:miter;stroke:rgb(0%,0%,100%);stroke-opacity:1;stroke-miterlimit:10;" d="M 63.9375 106.683594 L 55.226562 100.179688 "/>
<path style="fill:none;stroke-width:1.2;stroke-linecap:butt;stroke-linejoin:miter;stroke:rgb(0%,0%,0%);stroke-opacity:1;stroke-miterlimit:10;" d="M 70.09375 134.777344 L 87.515625 147.789062 "/>
<path style="fill:none;stroke-width:1.2;stroke-linecap:butt;stroke-linejoin:miter;stroke:rgb(0%,0%,0%);stroke-opacity:1;stroke-miterlimit:10;" d="M 74.894531 131.980469 L 88.832031 142.386719 "/>
<path style="fill:none;stroke-width:1.2;stroke-linecap:butt;stroke-linejoin:miter;stroke:rgb(0%,0%,100%);stroke-opacity:1;stroke-miterlimit:10;" d="M 55.226562 100.179688 L 56.503906 89.382812 "/>
<path style="fill:none;stroke-width:1.2;stroke-linecap:butt;stroke-linejoin:miter;stroke:rgb(0%,0%,0%);stroke-opacity:1;stroke-miterlimit:10;" d="M 56.503906 89.382812 L 57.78125 78.585938 "/>
<path style="fill:none;stroke-width:1.2;stroke-linecap:butt;stroke-linejoin:miter;stroke:rgb(0%,0%,100%);stroke-opacity:1;stroke-miterlimit:10;" d="M 55.226562 100.179688 L 45.238281 104.46875 "/>
<path style="fill:none;stroke-width:1.2;stroke-linecap:butt;stroke-linejoin:miter;stroke:rgb(0%,0%,0%);stroke-opacity:1;stroke-miterlimit:10;" d="M 45.238281 104.46875 L 35.25 108.761719 "/>
<path style=" stroke:none;fill-rule:nonzero;fill:rgb(100%,100%,100%);fill-opacity:1;" d="M 52.226562 94.679688 L 59.226562 94.679688 L 59.226562 105.679688 L 52.226562 105.679688 Z M 52.226562 94.679688 "/>
<g style="fill:rgb(0%,0%,100%);fill-opacity:1;">
  <use xlink:href="#glyph0-1" x="52.226562" y="103.342773"/>
</g>
</g>
</svg>

<svg xmlns="http://www.w3.org/2000/svg" xmlns:xlink="http://www.w3.org/1999/xlink" width="300pt" height="300pt" viewBox="0 0 300 300"><defs><symbol overflow="visible"><path d="M.453 1.594v-7.938h4.5v7.938zm.5-.5h3.5v-6.938h-3.5zm0 0"/></symbol><symbol overflow="visible" id="a"><path d="M.89-6.563H2.08l2.906 5.485v-5.484h.86V0H4.656L1.75-5.484V0H.89zm0 0"/></symbol><symbol overflow="visible" id="b"><path d="M.89-6.563h.876v2.688H5v-2.688h.89V0H5v-3.125H1.766V0H.89zm0 0"/></symbol></defs><g><path fill="#fff" d="M0 0h300v300H0z"/><path d="M264.75 92.13l-19.977 8.585M244.773 100.715l-2.554 21.59M239.438 102.27l-2.043 17.273" stroke-width="1.2" stroke="#000" stroke-miterlimit="10" fill="none"/><path d="M227.352 87.703l8.71 6.504" stroke-width="1.2" stroke="#00f" stroke-miterlimit="10" fill="none"/><path d="M236.063 94.207l8.71 6.508M242.22 122.305l-9.99 4.293" stroke-width="1.2" stroke="#000" stroke-miterlimit="10" fill="none"/><path d="M232.23 126.598l-9.988 4.29M222.242 130.887l-8.71-6.504" stroke-width="1.2" stroke="#00f" stroke-miterlimit="10" fill="none"/><path d="M213.53 124.383l-8.71-6.504" stroke-width="1.2" stroke="#000" stroke-miterlimit="10" fill="none"/><path d="M223.56 125.488l-6.97-5.203" stroke-width="1.2" stroke="#00f" stroke-miterlimit="10" fill="none"/><path d="M216.59 120.285l-6.97-5.203" stroke-width="1.2" stroke="#000" stroke-miterlimit="10" fill="none"/><path d="M219.242 125.387h7v11h-7zm0 0" fill="#fff"/><use xlink:href="#a" x="219.242" y="134.05" fill="#00f"/><path d="M204.82 117.88l2.555-21.59M204.82 117.88l-19.976 8.585M207.375 96.29l9.988-4.294" stroke-width="1.2" stroke="#000" stroke-miterlimit="10" fill="none"/><path d="M217.363 91.996l9.99-4.293" stroke-width="1.2" stroke="#00f" stroke-miterlimit="10" fill="none"/><path d="M211.39 100.13l7.993-3.435" stroke-width="1.2" stroke="#000" stroke-miterlimit="10" fill="none"/><path d="M219.383 96.695l7.992-3.433" stroke-width="1.2" stroke="#00f" stroke-miterlimit="10" fill="none"/><path d="M224.352 82.203h7v11h-7zm0 0" fill="#fff"/><use xlink:href="#a" x="224.352" y="90.866" fill="#00f"/><path d="M184.844 126.465l-1.278 10.793" stroke-width="1.2" stroke="#000" stroke-miterlimit="10" fill="none"/><path d="M183.566 137.258l-1.277 10.797M182.29 148.055l-9.99 4.293" stroke-width="1.2" stroke="#00f" stroke-miterlimit="10" fill="none"/><path d="M172.3 152.348l-9.988 4.29" stroke-width="1.2" stroke="#000" stroke-miterlimit="10" fill="none"/><path d="M175.29 142.555h14v11h-14zm0 0" fill="#fff"/><g fill="#00f"><use xlink:href="#a" x="175.289" y="151.218"/><use xlink:href="#b" x="182.267" y="151.218"/></g><path d="M162.313 156.637l-8.71-6.504" stroke-width="1.2" stroke="#000" stroke-miterlimit="10" fill="none"/><path d="M153.602 150.133l-8.71-6.504" stroke-width="1.2" stroke="#00f" stroke-miterlimit="10" fill="none"/><path d="M157.508 159.438l-6.97-5.204" stroke-width="1.2" stroke="#000" stroke-miterlimit="10" fill="none"/><path d="M150.54 154.234l-6.97-5.203" stroke-width="1.2" stroke="#00f" stroke-miterlimit="10" fill="none"/><path d="M159.758 178.23l2.554-21.593" stroke-width="1.2" stroke="#000" stroke-miterlimit="10" fill="none"/><path d="M144.89 143.63l-9.988 4.292" stroke-width="1.2" stroke="#00f" stroke-miterlimit="10" fill="none"/><path d="M134.902 147.922l-9.988 4.29" stroke-width="1.2" stroke="#000" stroke-miterlimit="10" fill="none"/><path d="M141.89 138.13h7v11h-7zm0 0" fill="#fff"/><use xlink:href="#a" x="141.891" y="146.792" fill="#00f"/><path d="M124.914 152.21l-1.277 10.798" stroke-width="1.2" stroke="#000" stroke-miterlimit="10" fill="none"/><path d="M123.637 163.008l-1.278 10.797" stroke-width="1.2" stroke="#00f" stroke-miterlimit="10" fill="none"/><path d="M129.738 154.973l-1.023 8.636" stroke-width="1.2" stroke="#000" stroke-miterlimit="10" fill="none"/><path d="M128.715 163.61l-1.02 8.636" stroke-width="1.2" stroke="#00f" stroke-miterlimit="10" fill="none"/><path d="M124.914 152.21l-17.422-13.007" stroke-width="1.2" stroke="#000" stroke-miterlimit="10" fill="none"/><path d="M122.36 173.805l8.71 6.504" stroke-width="1.2" stroke="#00f" stroke-miterlimit="10" fill="none"/><path d="M131.07 180.31l8.71 6.502" stroke-width="1.2" stroke="#000" stroke-miterlimit="10" fill="none"/><path d="M119.36 168.305h7v11h-7zm0 0" fill="#fff"/><use xlink:href="#a" x="119.359" y="176.968" fill="#00f"/><path d="M139.78 186.813l-2.553 21.593M144.605 189.574l-2.042 17.274M159.758 178.23l-19.977 8.583M137.227 208.406l17.42 13.008M154.648 221.414l19.977-8.582M154.625 215.855l15.98-6.867M174.625 212.832l2.555-21.594M177.18 191.238l-17.422-13.008M172.375 194.035l-13.938-10.406M107.492 139.203l2.555-21.59M102.668 136.445l2.043-17.273M87.516 147.79l19.976-8.587M110.047 117.613l-17.422-13.01M92.625 104.602l-19.977 8.585M92.648 110.164l-15.984 6.863M72.648 113.188l-2.554 21.59M72.648 113.188l-8.71-6.504" stroke-width="1.2" stroke="#000" stroke-miterlimit="10" fill="none"/><path d="M63.938 106.684l-8.71-6.504" stroke-width="1.2" stroke="#00f" stroke-miterlimit="10" fill="none"/><path d="M70.094 134.777l17.422 13.012M74.895 131.98l13.937 10.407" stroke-width="1.2" stroke="#000" stroke-miterlimit="10" fill="none"/><path d="M55.227 100.18l1.277-10.797" stroke-width="1.2" stroke="#00f" stroke-miterlimit="10" fill="none"/><path d="M56.504 89.383l1.277-10.797" stroke-width="1.2" stroke="#000" stroke-miterlimit="10" fill="none"/><path d="M55.227 100.18l-9.99 4.29" stroke-width="1.2" stroke="#00f" stroke-miterlimit="10" fill="none"/><path d="M45.238 104.47l-9.988 4.292" stroke-width="1.2" stroke="#000" stroke-miterlimit="10" fill="none"/><path d="M52.227 94.68h7v11h-7zm0 0" fill="#fff"/><use xlink:href="#a" x="52.227" y="103.343" fill="#00f"/></g></svg>
